X:18038
T:Roaring Mary
R:Reel
C:Trad.
O:Ireland
Z:Paul Hardy's Session Tunebook 2022 (see www.paulhardy.net). Creative Commons cc by-nc-sa licenced.
M:4/4
L:1/8
Q:1/4=140
K:D
E|"D"DFFG AFFG|AB (3def "G"g2fe|"D"dedB ABde|"Em"fede "A7"fedB|
"D"DFFG AFFG|AB (3def "G"g2fe|"D"dedB ABdf|"A7"afeg "D"fd d:|
|:f|"D"abag fgfe|dedc "G"BGG2|"Em"eg (3gfg bg (3gfg|"D"af (3fef "A7"ge (3ede|
"D"DFFG AFFG|AB (3def "G"g2fe|"D"dedB ABdf|"A7"afeg "D"fd d:|

